animalshelter/animalshelter-web-ui/src/main/resources/images_shelter/Accounting.svg

<svg xmlns="http://www.w3.org/2000/svg" xmlns:xlink="http://www.w3.org/1999/xlink" width="1080" zoomAndPan="magnify" viewBox="0 0 810 809.999993" height="1080" preserveAspectRatio="xMidYMid meet" version="1.0"><defs><clipPath id="0b993ab2f2"><path d="M 209 177.71875 L 523 177.71875 L 523 586 L 209 586 Z M 209 177.71875 " clip-rule="nonzero"/></clipPath><clipPath id="b9b6bb742f"><path d="M 404 334 L 624.320312 334 L 624.320312 632.21875 L 404 632.21875 Z M 404 334 " clip-rule="nonzero"/></clipPath><clipPath id="2eb29f024c"><path d="M 185.570312 224 L 484 224 L 484 257 L 185.570312 257 Z M 185.570312 224 " clip-rule="nonzero"/></clipPath></defs><rect x="-81" width="972" fill="#ffffff" y="-80.999999" height="971.999992" fill-opacity="1"/><rect x="-81" width="972" fill="#ffbd59" y="-80.999999" height="971.999992" fill-opacity="1"/><g clip-path="url(#0b993ab2f2)"><path fill="#e3e4e2" d="M 209.078125 177.734375 L 522.46875 177.734375 L 522.46875 585.191406 L 209.078125 585.191406 Z M 209.078125 177.734375 " fill-opacity="1" fill-rule="nonzero"/></g><g clip-path="url(#b9b6bb742f)"><path fill="#0093b9" d="M 428.453125 334.449219 L 600.816406 334.449219 C 601.585938 334.449219 602.355469 334.488281 603.121094 334.5625 C 603.886719 334.636719 604.648438 334.75 605.402344 334.902344 C 606.15625 335.050781 606.902344 335.238281 607.640625 335.460938 C 608.378906 335.683594 609.101562 335.945312 609.8125 336.238281 C 610.523438 336.535156 611.21875 336.863281 611.898438 337.226562 C 612.578125 337.585938 613.234375 337.984375 613.875 338.410156 C 614.515625 338.839844 615.132812 339.296875 615.730469 339.785156 C 616.324219 340.273438 616.894531 340.789062 617.4375 341.335938 C 617.980469 341.878906 618.5 342.449219 618.988281 343.042969 C 619.476562 343.640625 619.933594 344.257812 620.359375 344.898438 C 620.789062 345.535156 621.183594 346.195312 621.546875 346.875 C 621.910156 347.554688 622.238281 348.25 622.53125 348.960938 C 622.828125 349.671875 623.085938 350.394531 623.308594 351.132812 C 623.535156 351.871094 623.71875 352.617188 623.871094 353.371094 C 624.019531 354.125 624.132812 354.886719 624.207031 355.652344 C 624.285156 356.417969 624.320312 357.1875 624.320312 357.957031 L 624.320312 608.699219 C 624.320312 609.46875 624.285156 610.238281 624.207031 611.003906 C 624.132812 611.769531 624.019531 612.53125 623.871094 613.285156 C 623.71875 614.039062 623.535156 614.785156 623.308594 615.523438 C 623.085938 616.257812 622.828125 616.984375 622.53125 617.695312 C 622.238281 618.40625 621.910156 619.101562 621.546875 619.78125 C 621.183594 620.457031 620.789062 621.117188 620.359375 621.757812 C 619.933594 622.398438 619.476562 623.015625 618.988281 623.613281 C 618.5 624.207031 617.980469 624.777344 617.4375 625.320312 C 616.894531 625.863281 616.324219 626.382812 615.730469 626.871094 C 615.132812 627.359375 614.515625 627.816406 613.875 628.242188 C 613.234375 628.671875 612.578125 629.066406 611.898438 629.429688 C 611.21875 629.792969 610.523438 630.121094 609.8125 630.417969 C 609.101562 630.710938 608.378906 630.96875 607.640625 631.195312 C 606.902344 631.417969 606.15625 631.605469 605.402344 631.753906 C 604.648438 631.902344 603.886719 632.015625 603.121094 632.09375 C 602.355469 632.167969 601.585938 632.207031 600.816406 632.207031 L 428.453125 632.207031 C 427.683594 632.207031 426.914062 632.167969 426.148438 632.09375 C 425.382812 632.015625 424.621094 631.902344 423.867188 631.753906 C 423.109375 631.605469 422.363281 631.417969 421.628906 631.195312 C 420.890625 630.96875 420.167969 630.710938 419.457031 630.417969 C 418.746094 630.121094 418.050781 629.792969 417.371094 629.429688 C 416.691406 629.066406 416.03125 628.671875 415.394531 628.242188 C 414.753906 627.816406 414.136719 627.359375 413.539062 626.871094 C 412.945312 626.382812 412.375 625.863281 411.832031 625.320312 C 411.285156 624.777344 410.769531 624.207031 410.28125 623.609375 C 409.792969 623.015625 409.335938 622.398438 408.910156 621.757812 C 408.480469 621.117188 408.085938 620.457031 407.722656 619.78125 C 407.359375 619.101562 407.03125 618.40625 406.734375 617.695312 C 406.441406 616.984375 406.183594 616.257812 405.960938 615.523438 C 405.734375 614.785156 405.546875 614.039062 405.398438 613.285156 C 405.25 612.53125 405.136719 611.769531 405.058594 611.003906 C 404.984375 610.238281 404.945312 609.46875 404.945312 608.699219 L 404.945312 357.957031 C 404.945312 357.1875 404.984375 356.417969 405.058594 355.652344 C 405.136719 354.886719 405.25 354.125 405.398438 353.371094 C 405.546875 352.617188 405.734375 351.871094 405.960938 351.132812 C 406.183594 350.394531 406.441406 349.671875 406.734375 348.960938 C 407.03125 348.25 407.359375 347.554688 407.722656 346.875 C 408.085938 346.195312 408.480469 345.535156 408.910156 344.898438 C 409.335938 344.257812 409.792969 343.640625 410.28125 343.042969 C 410.769531 342.449219 411.285156 341.878906 411.832031 341.335938 C 412.375 340.789062 412.945312 340.273438 413.539062 339.785156 C 414.136719 339.296875 414.753906 338.839844 415.394531 338.410156 C 416.03125 337.984375 416.691406 337.585938 417.371094 337.226562 C 418.050781 336.863281 418.746094 336.535156 419.457031 336.238281 C 420.167969 335.945312 420.890625 335.683594 421.628906 335.460938 C 422.363281 335.238281 423.109375 335.050781 423.867188 334.902344 C 424.621094 334.75 425.382812 334.636719 426.148438 334.5625 C 426.914062 334.488281 427.683594 334.449219 428.453125 334.449219 Z M 428.453125 334.449219 " fill-opacity="1" fill-rule="nonzero"/></g><path fill="#f6bc1b" d="M 436.285156 444.148438 L 467.625 444.148438 L 467.625 475.492188 L 436.285156 475.492188 Z M 436.285156 444.148438 " fill-opacity="1" fill-rule="nonzero"/><path fill="#f6bc1b" d="M 498.964844 444.148438 L 530.304688 444.148438 L 530.304688 475.492188 L 498.964844 475.492188 Z M 498.964844 444.148438 " fill-opacity="1" fill-rule="nonzero"/><path fill="#56c3c1" d="M 436.285156 365.792969 L 592.984375 365.792969 L 592.984375 412.804688 L 436.285156 412.804688 Z M 436.285156 365.792969 " fill-opacity="1" fill-rule="nonzero"/><path fill="#f6bc1b" d="M 561.644531 444.148438 L 592.984375 444.148438 L 592.984375 475.492188 L 561.644531 475.492188 Z M 561.644531 444.148438 " fill-opacity="1" fill-rule="nonzero"/><path fill="#f6bc1b" d="M 436.285156 506.835938 L 467.625 506.835938 L 467.625 538.175781 L 436.285156 538.175781 Z M 436.285156 506.835938 " fill-opacity="1" fill-rule="nonzero"/><path fill="#f6bc1b" d="M 498.964844 506.835938 L 530.304688 506.835938 L 530.304688 538.175781 L 498.964844 538.175781 Z M 498.964844 506.835938 " fill-opacity="1" fill-rule="nonzero"/><path fill="#f6bc1b" d="M 561.644531 506.835938 L 592.984375 506.835938 L 592.984375 538.175781 L 561.644531 538.175781 Z M 561.644531 506.835938 " fill-opacity="1" fill-rule="nonzero"/><path fill="#f6bc1b" d="M 436.285156 569.519531 L 467.625 569.519531 L 467.625 600.863281 L 436.285156 600.863281 Z M 436.285156 569.519531 " fill-opacity="1" fill-rule="nonzero"/><path fill="#f6bc1b" d="M 498.964844 569.519531 L 530.304688 569.519531 L 530.304688 600.863281 L 498.964844 600.863281 Z M 498.964844 569.519531 " fill-opacity="1" fill-rule="nonzero"/><path fill="#f6bc1b" d="M 561.644531 569.519531 L 592.984375 569.519531 L 592.984375 600.863281 L 561.644531 600.863281 Z M 561.644531 569.519531 " fill-opacity="1" fill-rule="nonzero"/><g clip-path="url(#2eb29f024c)"><path fill="#0093b9" d="M 467.625 256.09375 L 201.242188 256.09375 C 200.210938 256.09375 199.195312 255.992188 198.183594 255.792969 C 197.175781 255.589844 196.195312 255.292969 195.246094 254.898438 C 194.292969 254.503906 193.390625 254.023438 192.535156 253.453125 C 191.679688 252.878906 190.890625 252.230469 190.160156 251.503906 C 189.433594 250.773438 188.785156 249.984375 188.210938 249.128906 C 187.640625 248.273438 187.160156 247.367188 186.765625 246.417969 C 186.371094 245.46875 186.074219 244.488281 185.875 243.476562 C 185.671875 242.46875 185.570312 241.449219 185.570312 240.421875 C 185.570312 239.390625 185.671875 238.371094 185.875 237.363281 C 186.074219 236.355469 186.371094 235.375 186.765625 234.421875 C 187.160156 233.472656 187.640625 232.570312 188.210938 231.714844 C 188.785156 230.859375 189.433594 230.066406 190.160156 229.339844 C 190.890625 228.613281 191.679688 227.960938 192.535156 227.390625 C 193.390625 226.820312 194.292969 226.335938 195.246094 225.941406 C 196.195312 225.546875 197.175781 225.25 198.183594 225.050781 C 199.195312 224.851562 200.210938 224.75 201.242188 224.75 L 467.625 224.75 L 483.296875 240.421875 Z M 467.625 256.09375 " fill-opacity="1" fill-rule="nonzero"/></g><path fill="#f6bc1b" d="M 334.433594 295.269531 L 271.753906 295.269531 C 270.714844 295.269531 269.714844 295.070312 268.757812 294.675781 C 267.796875 294.277344 266.949219 293.710938 266.214844 292.976562 L 234.875 261.632812 C 234.140625 260.898438 233.574219 260.050781 233.175781 259.089844 C 232.78125 258.132812 232.582031 257.132812 232.582031 256.09375 L 232.582031 224.75 L 248.25 224.75 L 248.25 252.847656 L 275 279.597656 L 334.433594 279.597656 Z M 334.433594 295.269531 " fill-opacity="1" fill-rule="nonzero"/><path fill="#0093b9" d="M 240.414062 326.613281 L 365.773438 326.613281 L 365.773438 420.640625 L 240.414062 420.640625 Z M 240.414062 326.613281 " fill-opacity="1" fill-rule="nonzero"/><path fill="#56c3c1" d="M 278.273438 393.644531 L 265.238281 384.953125 L 280.90625 361.445312 C 281.167969 361.050781 281.464844 360.683594 281.792969 360.34375 C 282.125 360.003906 282.480469 359.695312 282.867188 359.421875 C 283.25 359.144531 283.65625 358.90625 284.085938 358.703125 C 284.515625 358.503906 284.957031 358.339844 285.414062 358.21875 C 285.871094 358.097656 286.335938 358.019531 286.808594 357.980469 C 287.28125 357.945312 287.753906 357.949219 288.222656 357.996094 C 288.695312 358.046875 289.15625 358.136719 289.613281 358.269531 C 290.066406 358.398438 290.503906 358.570312 290.929688 358.785156 L 315.261719 370.949219 L 327.425781 346.617188 L 341.441406 353.625 L 325.769531 384.96875 C 325.542969 385.429688 325.269531 385.863281 324.953125 386.269531 C 324.636719 386.675781 324.285156 387.046875 323.898438 387.382812 C 323.507812 387.71875 323.089844 388.015625 322.644531 388.269531 C 322.195312 388.527344 321.730469 388.734375 321.242188 388.898438 C 320.753906 389.058594 320.253906 389.171875 319.742188 389.238281 C 319.234375 389.300781 318.722656 389.316406 318.207031 389.277344 C 317.695312 389.242188 317.191406 389.15625 316.695312 389.019531 C 316.199219 388.882812 315.71875 388.703125 315.261719 388.472656 L 290.105469 375.894531 Z M 278.273438 393.644531 " fill-opacity="1" fill-rule="nonzero"/><path fill="#b2b1b4" d="M 271.753906 444.148438 L 365.773438 444.148438 L 365.773438 459.820312 L 271.753906 459.820312 Z M 271.753906 444.148438 " fill-opacity="1" fill-rule="nonzero"/><path fill="#b2b1b4" d="M 240.414062 475.492188 L 365.773438 475.492188 L 365.773438 491.164062 L 240.414062 491.164062 Z M 240.414062 475.492188 " fill-opacity="1" fill-rule="nonzero"/><path fill="#b2b1b4" d="M 240.414062 506.835938 L 365.773438 506.835938 L 365.773438 522.507812 L 240.414062 522.507812 Z M 240.414062 506.835938 " fill-opacity="1" fill-rule="nonzero"/><path fill="#b2b1b4" d="M 240.414062 538.175781 L 350.101562 538.175781 L 350.101562 553.847656 L 240.414062 553.847656 Z M 240.414062 538.175781 " fill-opacity="1" fill-rule="nonzero"/><path fill="#b2b1b4" d="M 240.414062 444.148438 L 256.085938 444.148438 L 256.085938 459.820312 L 240.414062 459.820312 Z M 240.414062 444.148438 " fill-opacity="1" fill-rule="nonzero"/></svg>

<svg xmlns="http://www.w3.org/2000/svg" id="accounting" width="1080" height="1080" version="1.0" viewBox="0 0 810 810"><defs><clipPath id="a"><path d="M209 177.719h314V586H209Zm0 0"/></clipPath><clipPath id="b"><path d="M404 334h220.32v298.219H404Zm0 0"/></clipPath><clipPath id="c"><path d="M185.57 224H484v33H185.57Zm0 0"/></clipPath></defs><g clip-path="url(#a)"><path fill="#e3e4e2" d="M209.078 177.734h313.39v407.457h-313.39Zm0 0"/></g><g clip-path="url(#b)"><path fill="#0093b9" d="M428.453 334.45h172.363c.77 0 1.54.038 2.305.113a22.46 22.46 0 0 1 2.281.34 23.42 23.42 0 0 1 4.41 1.335 24.023 24.023 0 0 1 4.063 2.172c.64.43 1.258.887 1.855 1.375a22.887 22.887 0 0 1 1.707 1.55 23.772 23.772 0 0 1 1.551 1.708 23.42 23.42 0 0 1 1.371 1.855 23.068 23.068 0 0 1 2.172 4.063 23.44 23.44 0 0 1 1.34 4.41 23.603 23.603 0 0 1 .45 4.586v250.742a23.603 23.603 0 0 1-.45 4.586 23.44 23.44 0 0 1-.562 2.238 22.82 22.82 0 0 1-.778 2.172 23.068 23.068 0 0 1-2.172 4.063 23.42 23.42 0 0 1-1.37 1.855 23.772 23.772 0 0 1-1.552 1.707 23.773 23.773 0 0 1-1.707 1.551 23.42 23.42 0 0 1-1.855 1.371c-.64.43-1.297.824-1.977 1.188-.68.363-1.375.691-2.086.988a23.42 23.42 0 0 1-4.41 1.336c-.754.148-1.515.262-2.28.34-.767.074-1.536.113-2.306.113H428.453c-.77 0-1.539-.039-2.305-.113a24.893 24.893 0 0 1-2.28-.34 22.85 22.85 0 0 1-2.24-.559 24.74 24.74 0 0 1-2.171-.777 24.212 24.212 0 0 1-2.086-.988c-.68-.364-1.34-.758-1.976-1.188a23.42 23.42 0 0 1-1.856-1.37 23.773 23.773 0 0 1-1.707-1.552 22.887 22.887 0 0 1-2.922-3.562 23.636 23.636 0 0 1-2.176-4.063c-.293-.71-.55-1.437-.773-2.172a22.326 22.326 0 0 1-.563-2.238 24.893 24.893 0 0 1-.34-2.281 23.894 23.894 0 0 1-.113-2.305V357.957c0-.77.04-1.539.114-2.305.078-.765.191-1.527.34-2.28.148-.755.335-1.5.562-2.24.223-.737.48-1.46.773-2.171.297-.711.625-1.406.989-2.086.363-.68.757-1.34 1.187-1.977a22.887 22.887 0 0 1 2.922-3.563 22.887 22.887 0 0 1 1.707-1.55 23.387 23.387 0 0 1 3.832-2.559 23.534 23.534 0 0 1 8.777-2.664 23.894 23.894 0 0 1 2.305-.113Zm0 0"/></g><path fill="#f6bc1b" d="M436.285 444.148h31.34v31.344h-31.34ZM498.965 444.148h31.34v31.344h-31.34Zm0 0"/><path fill="#56c3c1" d="M436.285 365.793h156.7v47.012h-156.7Zm0 0"/><path fill="#f6bc1b" d="M561.645 444.148h31.34v31.344h-31.34ZM436.285 506.836h31.34v31.34h-31.34ZM498.965 506.836h31.34v31.34h-31.34ZM561.645 506.836h31.34v31.34h-31.34ZM436.285 569.52h31.34v31.343h-31.34ZM498.965 569.52h31.34v31.343h-31.34ZM561.645 569.52h31.34v31.343h-31.34Zm0 0"/><g clip-path="url(#c)"><path fill="#0093b9" d="M467.625 256.094H201.242c-1.031 0-2.047-.102-3.058-.301a15.739 15.739 0 0 1-2.938-.895 15.685 15.685 0 0 1-2.71-1.445 16.005 16.005 0 0 1-2.376-1.95 16.005 16.005 0 0 1-1.95-2.374 15.83 15.83 0 0 1-1.444-2.711c-.395-.95-.692-1.93-.891-2.941a15.432 15.432 0 0 1 0-6.114 15.685 15.685 0 0 1 2.336-5.648 15.807 15.807 0 0 1 1.95-2.375 15.704 15.704 0 0 1 8.023-4.29c1.011-.198 2.027-.3 3.058-.3h266.383l15.672 15.672Zm0 0"/></g><path fill="#f6bc1b" d="M334.434 295.27h-62.68c-1.04 0-2.04-.2-2.996-.594a7.771 7.771 0 0 1-2.543-1.7l-31.34-31.343a7.771 7.771 0 0 1-1.7-2.543 7.793 7.793 0 0 1-.593-2.996V224.75h15.668v28.098l26.75 26.75h59.434Zm0 0"/><path fill="#0093b9" d="M240.414 326.613h125.36v94.028h-125.36Zm0 0"/><path fill="#56c3c1" d="m278.273 393.645-13.035-8.692 15.668-23.508a7.765 7.765 0 0 1 1.961-2.023c.383-.277.79-.516 1.219-.719.43-.2.871-.363 1.328-.484.457-.121.922-.2 1.395-.239a8.138 8.138 0 0 1 1.414.016c.472.05.933.14 1.39.274.453.128.89.304 1.317.515l24.332 12.164 12.164-24.332 14.015 7.008-15.671 31.344c-.227.46-.5.894-.817 1.3a7.905 7.905 0 0 1-1.055 1.114 7.996 7.996 0 0 1-2.656 1.515 7.746 7.746 0 0 1-3.035.379 7.65 7.65 0 0 1-1.512-.257 7.75 7.75 0 0 1-1.433-.547l-25.157-12.578Zm0 0"/><path fill="#b2b1b4" d="M271.754 444.148h94.02v15.672h-94.02ZM240.414 475.492h125.36v15.672h-125.36ZM240.414 506.836h125.36v15.672h-125.36ZM240.414 538.176h109.688v15.672H240.414ZM240.414 444.148h15.672v15.672h-15.672Zm0 0"/></svg>
